X: 50
T: No_14_Dancing_Song_from_the_East_God_(b).krn
N: Derived from No_14_Dancing_Song_from_the_East_God_(b).krn
%%abc-version 2.0
%%abcx-abcm2ps-target-version 5.9.1 (29 Sep 2008)
%%abc-creator hum2abc beta
%%abcx-conversion-date 2019/03/15 08:35:44
%%humdrum-veritas 2719259152
%%humdrum-veritas-data 561348025
%%linebreak <none>
%%barnumbers 0
L: 1/8
M: 2/4
K: Bb clef=bass
[K:clef=bass][M:2/4]z B, B,B, | 
B,4 ||  
[M:3/4]B,G, F,F,F,2 | 
D,C, C,C, C, z ||  
[M:2/4]A,G, F,F, | 
F,4 | 
G,F, D,D, | 
D,4 | 
D,D, C,C, | 
C,4 | 
z C, C,F, | 
F,4 | 
F,D, C,C, | 
C,4 | 
D,C, B,,B,, | 
B,,4 | 
B,,B,, B,,B,, | 
B,,4 |]  



